apps/site/public/icons/companies/krisenchat.svg

<svg width="156" height="44" viewBox="0 0 156 44" fill="none" xmlns="http://www.w3.org/2000/svg">
<g clip-path="url(#clip0_7340_97332)">
<path d="M20.2717 25.7828L29.2156 16.2634C29.3367 16.1367 29.3745 15.9405 29.3102 15.7729C29.2459 15.6012 29.0946 15.4909 28.9243 15.4909H17.8125C17.6915 15.4909 17.578 15.5481 17.4985 15.6421L9.73881 24.4789V15.9037C9.73881 15.6544 9.55342 15.4541 9.32264 15.4541L0.548984 15.4909C0.318198 15.4909 0.132812 15.6912 0.132812 15.9405V43.5503C0.132812 43.7997 0.318198 43.9999 0.548984 43.9999H9.32264C9.55342 43.9999 9.73881 43.7997 9.73881 43.5503V36.5038L13.3898 33.1726L18.5654 43.7588C18.6373 43.9059 18.7811 43.9999 18.9362 43.9999H29.541C29.6923 43.9999 29.8285 43.9141 29.9042 43.771C29.9799 43.628 29.9761 43.4563 29.9042 43.3174L20.2717 25.7828Z" fill="white"/>
<path d="M11.9479 15.8302C11.9479 14.3301 10.8205 13.1121 9.43196 13.1121H1.08205C0.419955 13.1121 0 12.5317 0 11.8164V1.29568C0 0.5804 0.419955 0 1.08205 0H28.7385C29.4006 0 29.9379 0.5804 29.9379 1.29568V11.8205C29.9379 12.5358 29.4006 13.1162 28.7385 13.1162H17.6078C16.9382 13.1162 16.3026 13.4268 15.8599 13.9664L11.9517 18.7485V15.8343H11.9479V15.8302Z" fill="#2BF7C6"/>
<path d="M53.8106 34.8936L52.373 32.1265L51.272 33.6306L51.2947 37.2929C51.2947 37.4155 51.2039 37.5095 51.0942 37.5095H48.1507C48.0372 37.5095 47.9502 37.4114 47.9502 37.2929L48.041 29.0201L47.9502 20.7474C47.9502 20.6248 48.041 20.5308 48.1507 20.5308H51.0942C51.2077 20.5308 51.2947 20.6289 51.2947 20.7474L51.2266 28.9506V29.7027L54.5749 25.1903C54.6657 25.0922 54.7981 25.0186 54.9116 25.0186H58.2145C58.3053 25.0186 58.328 25.1167 58.2826 25.1903L54.7111 29.5106L58.8879 37.3256C58.9333 37.4237 58.8652 37.5177 58.7744 37.5177H55.271C55.1575 37.5177 55.0251 37.4441 54.9797 37.3256L53.8106 34.8977V34.8936Z" fill="white"/>
<path d="M59.8265 37.5137C59.713 37.5137 59.626 37.4157 59.626 37.2971L59.7168 31.2561L59.626 25.2395C59.626 25.1169 59.7168 25.0229 59.8265 25.0229H62.7927C62.9062 25.0229 62.9932 25.121 62.9932 25.2395L62.9024 27.132C63.799 25.6523 65.3502 24.9248 67.0338 24.9248C67.2154 24.9248 67.3932 24.9493 67.5522 24.9739C67.6657 24.9984 67.7527 25.121 67.7527 25.2395V27.4957C67.7527 27.6183 67.6619 27.6878 67.5522 27.6878C67.416 27.6633 67.2608 27.6633 67.1246 27.6633C64.7449 27.6633 62.9705 29.0939 62.9932 31.9591V37.2971C62.9932 37.4197 62.9024 37.5137 62.7927 37.5137H59.8265Z" fill="white"/>
<path d="M69.0804 23.8047C68.9669 23.8047 68.8799 23.7066 68.8799 23.5881V20.7474C68.8799 20.6248 68.9707 20.5308 69.0804 20.5308H72.092C72.2055 20.5308 72.2925 20.6289 72.2925 20.7474V23.5881C72.2925 23.7107 72.2017 23.8047 72.092 23.8047H69.0804ZM69.0804 37.5136C68.9669 37.5136 68.8799 37.4155 68.8799 37.297L68.948 31.2804L68.8799 25.2394C68.8799 25.1167 68.9707 25.0227 69.0804 25.0227H72.1109C72.2244 25.0227 72.3114 25.1208 72.3114 25.2394L72.2433 31.2804L72.3114 37.297C72.3114 37.4196 72.2206 37.5136 72.1109 37.5136H69.0804Z" fill="white"/>
<path d="M79.231 37.8079C75.86 37.8079 73.7073 36.3283 73.5938 33.5367C73.5938 33.4141 73.6846 33.3201 73.7943 33.3201H76.6696C76.7831 33.3201 76.8702 33.4182 76.8702 33.5367C76.961 34.9427 77.8122 35.5517 79.3861 35.5517C80.7103 35.5517 81.4291 34.9918 81.4291 34.0231C81.4291 31.6443 73.8586 33.9495 73.8586 28.7096C73.8586 26.1141 75.7919 24.7285 78.9132 24.7285C82.0345 24.7285 83.9905 26.0405 84.191 28.6605C84.2137 28.7831 84.1229 28.8771 84.0094 28.8771H81.2702C81.1567 28.8771 81.0697 28.7791 81.047 28.6605C80.8692 27.5937 80.2374 26.9398 78.8678 26.9398C77.7668 26.9398 77.0707 27.3771 77.0707 28.4439C77.0707 30.8227 84.6412 28.3948 84.6412 33.7084C84.6412 36.3283 82.3485 37.8079 79.2272 37.8079H79.231Z" fill="white"/>
<path d="M96.9528 33.2913C97.0663 33.2913 97.1533 33.3894 97.1344 33.5079C96.8431 35.7886 94.8228 37.8282 91.588 37.8282C87.7251 37.8282 85.6367 35.0856 85.6367 31.3007C85.6367 27.3197 87.8386 24.6997 91.5199 24.6997C95.2011 24.6997 97.4257 27.4178 97.4938 31.783C97.4938 31.9057 97.403 31.9997 97.2933 31.9997H89.0266C89.1628 34.354 90.0141 35.3962 91.6334 35.3962C92.757 35.3962 93.5667 34.8363 93.8807 33.5038C93.9034 33.3812 94.0169 33.2872 94.1266 33.2872H96.9566H96.9528V33.2913ZM91.5388 27.103C90.1919 27.103 89.3823 27.9777 89.1136 29.6985H93.8542C93.718 28.3619 93.0219 27.103 91.5426 27.103H91.5388Z" fill="white"/>
<path d="M98.9271 37.5133C98.8136 37.5133 98.7266 37.4152 98.7266 37.2967L98.7947 31.5213L98.772 25.235C98.772 25.1124 98.8628 25.0184 98.9725 25.0184H101.825C101.939 25.0184 102.026 25.1165 102.026 25.235L101.958 26.592C102.745 25.5007 104.069 24.7241 105.684 24.7241C108.132 24.7241 109.706 26.5185 109.706 29.5758V32.1957L109.774 37.2926C109.774 37.4152 109.683 37.5093 109.57 37.5093H106.558C106.445 37.5093 106.358 37.4112 106.358 37.2926L106.403 32.1957V29.6248C106.403 28.2678 105.661 27.3931 104.651 27.3931C103.437 27.3931 102.135 28.6071 102.135 31.2761V32.1998L102.181 37.2967C102.181 37.4193 102.09 37.5133 101.98 37.5133H98.9271Z" fill="white"/>
<path d="M116.804 37.8282C113.097 37.8282 110.898 35.2818 110.898 31.3007C110.898 27.3197 113.1 24.6997 116.872 24.6997C119.839 24.6997 121.768 26.5186 122.037 29.2366C122.059 29.3593 121.969 29.4533 121.859 29.4533H119.142C119.029 29.4533 118.942 29.3552 118.919 29.2366C118.651 27.8306 117.841 27.148 116.876 27.148C115.17 27.1725 114.36 28.505 114.36 31.2721C114.36 34.0392 115.193 35.3717 116.876 35.3962C118.023 35.4207 118.874 34.5461 119.01 32.9193C119.033 32.7967 119.123 32.7027 119.233 32.7027H122.018C122.131 32.7027 122.222 32.8008 122.196 32.9193C121.95 35.76 119.839 37.82 116.804 37.82V37.8282Z" fill="white"/>
<path d="M129.27 27.3973C128.192 27.3973 127.023 28.2965 126.64 30.0663L126.731 37.2968C126.731 37.4194 126.64 37.5134 126.531 37.5134H123.587C123.474 37.5134 123.387 37.4153 123.387 37.2968L123.478 28.9995L123.387 20.7513C123.387 20.6287 123.478 20.5347 123.587 20.5347H126.531C126.644 20.5347 126.731 20.6328 126.731 20.7513L126.663 26.4041C127.473 25.2882 128.638 24.7283 130.167 24.7283C132.773 24.7283 134.366 26.4041 134.298 30.0663V32.7353L134.366 37.2968C134.366 37.4194 134.275 37.5134 134.166 37.5134H131.135C131.022 37.5134 130.931 37.4153 130.931 37.2968L130.999 32.7844L130.976 29.629C130.953 28.1248 130.189 27.3973 129.27 27.3973Z" fill="white"/>
<path d="M144.071 37.5134C143.957 37.5134 143.867 37.4153 143.867 37.2968L143.912 36.0583C143.102 37.1251 141.96 37.7587 140.499 37.7587C137.219 37.7587 135.49 34.9425 135.49 31.3048C135.49 27.6671 137.424 24.7773 140.568 24.7773C142.005 24.7773 143.129 25.3373 143.916 26.3551L143.848 25.2392C143.848 25.1166 143.939 25.0226 144.048 25.0226H147.06C147.173 25.0226 147.264 25.1207 147.264 25.2392L147.196 31.2803L147.264 37.2968C147.264 37.4194 147.173 37.5134 147.06 37.5134H144.071ZM141.441 35.3308C143.08 35.3308 143.957 33.9983 143.98 31.3498C144.003 28.6807 143.125 27.2256 141.51 27.2011C139.803 27.1521 138.926 28.5377 138.926 31.1086C138.926 33.9248 139.822 35.3553 141.441 35.3308Z" fill="white"/>
<path d="M155.973 37.0559C155.973 37.1785 155.882 37.297 155.795 37.3461C155.145 37.5872 154.403 37.7589 153.684 37.7589C151.728 37.7589 149.867 36.6921 149.867 33.8514L149.89 27.5896H148.588C148.475 27.5896 148.384 27.4915 148.384 27.373V25.2394C148.384 25.1168 148.475 25.0228 148.588 25.0228H149.89L149.867 22.1126C149.867 21.99 149.958 21.896 150.071 21.896H153.06C153.174 21.896 153.261 21.9941 153.261 22.1126L153.238 25.0228H155.799C155.913 25.0228 156 25.1209 156 25.2394V27.373C156 27.4956 155.909 27.5896 155.799 27.5896H153.215L153.238 33.7533C153.238 34.8201 153.733 35.1593 154.471 35.1593C155.012 35.1593 155.436 35.0613 155.773 34.9427C155.886 34.9182 155.973 35.0163 155.973 35.1144V37.0559Z" fill="white"/>
</g>
<defs>
<clipPath id="clip0_7340_97332">
<rect width="156" height="44" fill="white"/>
</clipPath>
</defs>
</svg>

<svg xmlns="http://www.w3.org/2000/svg" width="156" height="44" fill="none" viewBox="0 0 156 44"><g clip-path="url(#a)"><path fill="#fff" d="m20.272 25.783 8.944-9.52a.47.47 0 0 0 .094-.49.42.42 0 0 0-.386-.282H17.813a.41.41 0 0 0-.314.151l-7.76 8.837v-8.575c0-.25-.186-.45-.416-.45l-8.774.037c-.23 0-.416.2-.416.45v27.61c0 .249.185.449.416.449h8.774c.23 0 .416-.2.416-.45v-7.046l3.65-3.331 5.176 10.586a.42.42 0 0 0 .371.24h10.605a.41.41 0 0 0 .363-.228.5.5 0 0 0 0-.454z"/><path fill="#2bf7c6" d="M11.948 15.83c0-1.5-1.128-2.718-2.516-2.718h-8.35C.42 13.112 0 12.532 0 11.816V1.296C0 .58.42 0 1.082 0H28.74c.662 0 1.199.58 1.199 1.296V11.82c0 .716-.537 1.296-1.2 1.296h-11.13c-.67 0-1.305.31-1.748.85l-3.908 4.783v-2.915h-.004z"/><path fill="#fff" d="m53.81 34.894-1.437-2.767-1.101 1.504.023 3.662c0 .123-.091.217-.2.217H48.15c-.114 0-.2-.099-.2-.217l.09-8.273-.09-8.273c0-.122.09-.216.2-.216h2.943c.114 0 .2.098.2.216l-.067 8.204v.752l3.348-4.513a.5.5 0 0 1 .337-.171h3.303c.09 0 .113.098.068.171l-3.572 4.32 4.177 7.816c.045.098-.023.192-.114.192H55.27a.32.32 0 0 1-.291-.192l-1.17-2.428zm6.017 2.62c-.114 0-.201-.098-.201-.217l.09-6.04-.09-6.018c0-.122.09-.216.2-.216h2.967c.113 0 .2.098.2.216l-.09 1.893c.896-1.48 2.447-2.207 4.13-2.207.182 0 .36.024.52.049.113.024.2.147.2.265v2.257c0 .122-.091.192-.2.192-.137-.025-.292-.025-.428-.025-2.38 0-4.154 1.43-4.132 4.296v5.338c0 .123-.09.217-.2.217zm9.253-13.709c-.113 0-.2-.098-.2-.217v-2.84c0-.123.09-.217.2-.217h3.012c.114 0 .2.098.2.216v2.841c0 .123-.09.217-.2.217zm0 13.709c-.113 0-.2-.099-.2-.217l.068-6.017-.068-6.04c0-.123.09-.217.2-.217h3.03c.114 0 .201.098.201.216l-.068 6.041.068 6.017c0 .123-.09.217-.2.217zm10.151.294c-3.371 0-5.524-1.48-5.637-4.271 0-.123.09-.217.2-.217h2.876c.113 0 .2.098.2.217.091 1.406.942 2.015 2.516 2.015 1.324 0 2.043-.56 2.043-1.529 0-2.379-7.57-.074-7.57-5.313 0-2.596 1.933-3.982 5.054-3.982s5.078 1.313 5.278 3.932a.18.18 0 0 1-.182.217H81.27c-.113 0-.2-.098-.223-.216-.178-1.067-.81-1.721-2.18-1.721-1.1 0-1.796.437-1.796 1.504 0 2.379 7.57-.05 7.57 5.264 0 2.62-2.293 4.1-5.414 4.1zm17.722-4.517c.113 0 .2.098.181.217-.29 2.28-2.311 4.32-5.546 4.32-3.863 0-5.951-2.742-5.951-6.527 0-3.981 2.202-6.601 5.883-6.601s5.906 2.718 5.974 7.083c0 .123-.091.217-.2.217h-8.267c.136 2.354.987 3.396 2.606 3.396 1.124 0 1.934-.56 2.248-1.892.022-.123.136-.217.246-.217h2.83-.004zm-5.414-6.188c-1.347 0-2.157.875-2.425 2.595h4.74c-.136-1.336-.832-2.595-2.311-2.595zm7.388 10.41c-.113 0-.2-.098-.2-.216l.068-5.776-.023-6.286c0-.123.09-.217.2-.217h2.853c.114 0 .201.098.201.217l-.068 1.357c.787-1.091 2.111-1.868 3.726-1.868 2.448 0 4.022 1.794 4.022 4.852v2.62l.068 5.097c0 .122-.091.216-.204.216h-3.012c-.113 0-.2-.098-.2-.216l.045-5.097v-2.571c0-1.357-.742-2.232-1.752-2.232-1.214 0-2.516 1.214-2.516 3.883v.924l.046 5.097c0 .122-.091.216-.201.216zm17.877.315c-3.707 0-5.906-2.546-5.906-6.527s2.202-6.601 5.974-6.601c2.967 0 4.896 1.819 5.165 4.537a.18.18 0 0 1-.178.216h-2.717c-.113 0-.2-.098-.223-.216-.268-1.406-1.078-2.089-2.043-2.089-1.706.024-2.516 1.357-2.516 4.124s.833 4.1 2.516 4.124c1.147.025 1.998-.85 2.134-2.477.023-.122.113-.216.223-.216h2.785c.113 0 .204.098.178.216-.246 2.841-2.357 4.901-5.392 4.901zm12.466-10.431c-1.078 0-2.247.9-2.63 2.67l.091 7.23c0 .122-.091.216-.2.216h-2.944c-.113 0-.2-.098-.2-.216l.091-8.297-.091-8.249c0-.122.091-.216.2-.216h2.944c.113 0 .2.098.2.216l-.068 5.653c.81-1.116 1.975-1.676 3.504-1.676 2.606 0 4.199 1.676 4.131 5.338v2.67l.068 4.56c0 .123-.091.217-.2.217h-3.031c-.113 0-.204-.098-.204-.216l.068-4.513-.023-3.155c-.023-1.504-.787-2.232-1.706-2.232m14.801 10.116c-.114 0-.204-.098-.204-.216l.045-1.239c-.81 1.067-1.952 1.7-3.413 1.7-3.28 0-5.009-2.815-5.009-6.453s1.934-6.528 5.078-6.528c1.437 0 2.561.56 3.348 1.578l-.068-1.116c0-.122.091-.216.2-.216h3.012c.113 0 .204.098.204.216l-.068 6.041.068 6.017c0 .122-.091.216-.204.216zm-2.63-2.182c1.639 0 2.516-1.333 2.539-3.981.023-2.67-.855-4.124-2.47-4.149-1.707-.049-2.584 1.337-2.584 3.908 0 2.816.896 4.246 2.515 4.222m14.532 1.725a.36.36 0 0 1-.178.29c-.65.241-1.392.413-2.111.413-1.956 0-3.817-1.067-3.817-3.908l.023-6.261h-1.302c-.113 0-.204-.099-.204-.217v-2.134c0-.122.091-.216.204-.216h1.302l-.023-2.91c0-.123.091-.217.204-.217h2.989c.114 0 .201.098.201.217l-.023 2.91h2.561c.114 0 .201.098.201.216v2.134c0 .123-.091.217-.201.217h-2.584l.023 6.163c0 1.067.495 1.406 1.233 1.406.541 0 .965-.098 1.302-.216.113-.025.2.073.2.171z"/></g><defs><clipPath id="a"><path fill="#fff" d="M0 0h156v44H0z"/></clipPath></defs></svg>
